build/svg/cmd/sc_imagemapdialog.svg

<?xml version="1.0" encoding="UTF-8" standalone="no"?>
<svg
   xmlns:dc="http://purl.org/dc/elements/1.1/"
   xmlns:cc="http://creativecommons.org/ns#"
   xmlns:rdf="http://www.w3.org/1999/02/22-rdf-syntax-ns#"
   xmlns:svg="http://www.w3.org/2000/svg"
   xmlns="http://www.w3.org/2000/svg"
   xmlns:sodipodi="http://sodipodi.sourceforge.net/DTD/sodipodi-0.dtd"
   xmlns:inkscape="http://www.inkscape.org/namespaces/inkscape"
   viewBox="0 0 16 16"
   version="1.1"
   id="svg6"
   sodipodi:docname="sc_imagemapdialog.svg"
   inkscape:version="0.92.5 (2060ec1f9f, 2020-04-08)"
   inkscape:export-filename="/home/jupiter007/Libreoffice yaru theme fullcolor/build/cmd/sc_imagemapdialog.png"
   inkscape:export-xdpi="95"
   inkscape:export-ydpi="95">
  <metadata
     id="metadata12">
    <rdf:RDF>
      <cc:Work
         rdf:about="">
        <dc:format>image/svg+xml</dc:format>
        <dc:type
           rdf:resource="http://purl.org/dc/dcmitype/StillImage" />
      </cc:Work>
    </rdf:RDF>
  </metadata>
  <defs
     id="defs10">
    <inkscape:perspective
       sodipodi:type="inkscape:persp3d"
       inkscape:vp_x="0 : 8 : 1"
       inkscape:vp_y="0 : 1000 : 0"
       inkscape:vp_z="16 : 8 : 1"
       inkscape:persp3d-origin="8 : 5.3333333 : 1"
       id="perspective820" />
  </defs>
  <sodipodi:namedview
     pagecolor="#ffffff"
     bordercolor="#666666"
     borderopacity="1"
     objecttolerance="10"
     gridtolerance="10"
     guidetolerance="10"
     inkscape:pageopacity="0"
     inkscape:pageshadow="2"
     inkscape:window-width="1920"
     inkscape:window-height="1011"
     id="namedview8"
     showgrid="true"
     inkscape:zoom="29.5"
     inkscape:cx="2.0423716"
     inkscape:cy="6.3404358"
     inkscape:window-x="0"
     inkscape:window-y="32"
     inkscape:window-maximized="1"
     inkscape:current-layer="svg6">
    <inkscape:grid
       type="xygrid"
       id="grid818" />
  </sodipodi:namedview>
  <path
     sodipodi:nodetypes="cccscsccccccccscscccccc"
     inkscape:connector-curvature="0"
     id="path4237-1"
     d="M 4.994141,1.9994167 C 3.735941,2.0139167 2.81525,1.9688127 2.0625,2.3841823 1.68613,2.5918423 1.389269,2.9435692 1.224609,3.3822292 1.059939,3.8208992 1,4.3418167 1,4.9994167 V 6.4876977 11 c 0,0.65761 0.0599,1.178577 0.224609,1.617188 0.16468,0.438611 0.461531,0.788524 0.837891,0.996093 C 2.81522,14.028411 3.736041,13.98493 4.994141,14 h 0.002 6.005859 0.0039 c 1.25819,-0.0145 2.178891,0.0306 2.931641,-0.384766 0.37637,-0.20766 0.673221,-0.559386 0.837891,-0.998046 C 14.939971,12.178517 15.00005,11.65761 15.00005,11 V 6.4662137 4.9994167 c 0,-0.6576 -0.0599,-1.1785775 -0.224609,-1.6171875 -0.16468,-0.4386 -0.461531,-0.7885338 -0.837891,-0.9960937 -0.75277,-0.41513 -1.673601,-0.3716388 -2.931691,-0.3867188 h -0.002 -6.0058591 z"
     style="font-style:normal;font-variant:normal;font-weight:normal;font-stretch:normal;font-size:15px;line-height:125%;font-family:Ubuntu;-inkscape-font-specification:Ubuntu;text-align:center;letter-spacing:0px;word-spacing:0px;writing-mode:lr-tb;text-anchor:middle;display:inline;opacity:0.6;fill:#000000;fill-opacity:1;stroke:none;stroke-width:0.99980211" />
  <path
     inkscape:connector-curvature="0"
     id="path1993"
     d="M 7.983369,3.0266015 C 6.426788,3.0373975 4.873379,3.0148495 3.323428,3.0653765 2.862199,3.1080445 2.30724,3.2717959 2.168088,3.7753433 1.949094,4.4106897 2.059674,5.1091305 2.022292,5.7572676 c -0.0078,2.2970841 -0.02297,3.5964284 0.02152,5.8857804 0.0391,0.461929 0.202551,1.012666 0.698756,1.163666 0.632456,0.225082 1.284144,0.12274 1.935974,0.154298 1.424235,0.0068 2.850563,0.01102 4.2764202,0.01131 1.7045308,3.5e-4 1.4083878,-0.005 3.1071898,-0.01851 0.511911,-0.01201 1.183699,0.01993 1.584745,-0.405191 0.421097,-0.539783 0.287073,-1.268021 0.322745,-1.903787 0.01187,-2.4443233 0.02769,-3.9110953 -0.0219,-6.3567948 C 13.898466,3.8859989 13.77775,3.4250871 13.372603,3.243564 12.704434,2.9494666 11.946398,3.0755451 11.246682,3.0379913 9.4922752,3.0261887 9.7378082,3.0255069 7.983369,3.0266015 Z"
     style="opacity:1;vector-effect:none;fill:#dfdfdf;fill-opacity:1;stroke:none;stroke-width:1;stroke-linecap:round;stroke-linejoin:bevel;stroke-miterlimit:4;stroke-dasharray:none;stroke-dashoffset:0;stroke-opacity:1"
     sodipodi:nodetypes="cccccccsccccccc" />
  <path
     style="color:#000000;display:inline;overflow:visible;visibility:visible;opacity:1;fill:#232629;fill-opacity:1;fill-rule:nonzero;stroke:none;stroke-width:18.28524208;marker:none;enable-background:accumulate"
     d="m 5.994141,6.9994167 -2,4.0000003 h 8 L 9.4833692,7.9994167 7.983369,9.999417 Z"
     id="path1099"
     inkscape:connector-curvature="0"
     sodipodi:nodetypes="cccccc" />
  <path
     style="opacity:1;vector-effect:none;fill:#232629;fill-opacity:1;stroke:none;stroke-width:1.88642752;stroke-linecap:round;stroke-linejoin:bevel;stroke-miterlimit:4;stroke-dasharray:none;stroke-dashoffset:0;stroke-opacity:1"
     id="path3397"
     sodipodi:type="arc"
     sodipodi:cx="9.9393234"
     sodipodi:cy="6.0477285"
     sodipodi:rx="0.94321376"
     sodipodi:ry="0.94321376"
     sodipodi:start="6.2325882"
     sodipodi:end="6.2319424"
     sodipodi:open="true"
     d="M 10.88133,6.000025 A 0.94321376,0.94321376 0 0 1 9.987179,6.9897275 0.94321376,0.94321376 0 0 1 8.9973322,6.0957362 0.94321376,0.94321376 0 0 1 9.8911636,5.1057451 0.94321376,0.94321376 0 0 1 10.881299,5.9994167" />
  <path
     style="fill:#ffffff;fill-opacity:1;stroke:#ffffff;stroke-width:2;stroke-linejoin:round;stroke-miterlimit:4;stroke-dasharray:none"
     inkscape:connector-curvature="0"
     id="path834"
     d="M 10,9 10.0036,15.048611 11.763667,13 H 15 Z" />
  <path
     d="M 10,9 10.0036,15.048611 11.763667,13 H 15 Z"
     id="path4"
     inkscape:connector-curvature="0"
     style="fill:#232629;fill-opacity:1;stroke-width:0.62036997" />
</svg>

<svg xmlns="http://www.w3.org/2000/svg" viewBox="0 0 16 16"><path d="M4.994 2c-1.258.014-2.179-.031-2.931.384a1.88 1.88 0 00-.838.998C1.06 3.821 1 4.342 1 5V11c0 .658.06 1.179.225 1.617.164.439.461.789.838.996.752.415 1.673.372 2.931.387h6.012c1.258-.015 2.179.03 2.932-.385a1.88 1.88 0 00.837-.998c.165-.438.225-.96.225-1.617V4.999c0-.657-.06-1.178-.225-1.617a1.875 1.875 0 00-.837-.996c-.753-.415-1.674-.372-2.932-.387H4.998z" style="line-height:125%;-inkscape-font-specification:Ubuntu;text-align:center" font-weight="400" font-size="15" font-family="Ubuntu" letter-spacing="0" word-spacing="0" text-anchor="middle" opacity=".6"/><path d="M7.983 3.027c-1.556.01-3.11-.012-4.66.038-.46.043-1.016.207-1.155.71-.219.636-.108 1.334-.146 1.982-.008 2.297-.023 3.597.022 5.886.039.462.202 1.013.699 1.164.632.225 1.284.122 1.936.154 1.424.007 2.85.011 4.276.011 1.704 0 1.408-.005 3.107-.018.512-.012 1.184.02 1.585-.405.421-.54.287-1.268.323-1.904.012-2.444.027-3.911-.022-6.357-.05-.402-.17-.863-.575-1.044-.669-.295-1.427-.168-2.126-.206-1.755-.012-1.51-.012-3.264-.011z" fill="#dfdfdf"/><path style="marker:none" d="M5.994 7l-2 4h8l-2.51-3-1.5 2z" color="#000" overflow="visible" fill="#232629"/><path d="M10.881 6a.943.943 0 01-.894.99.943.943 0 01-.99-.894.943.943 0 01.894-.99.943.943 0 01.99.893" fill="#232629"/><path d="M10 9l.004 6.049L11.764 13H15z" fill="#fff" stroke="#fff" stroke-width="2" stroke-linejoin="round"/><path d="M10 9l.004 6.049L11.764 13H15z" fill="#232629"/></svg>
